!!!!SEGMENT: pl-wtm--r-2304_troschel-wilhelm--walec-oryginalny.krn
!!!cenid: 18xx:2263
!!!COM: Troschel, Wilhelm
!!!COM-rismID: pe30024099
!!!CDT: 1823/08/23-1887/03/02
!!!CNT: Polish
!!!OTL: Walec Oryginalny
!!!PDT:
!!!AGN:
!!!SMS-siglum: PL-Wtm
!!!SMS-shelfmark: R 2304
!!!SMS-shelfwork: W
!!!SMS-variant:
!!!SMS-altvar:
!!!NIFC-rismSourceID: 1001114063
!!!NIFC-islandoraID: pl-wtm:30247
!!!URL-pdf-islandora: https://repozytorium.nifc.pl/islandora/object/pl-wtm%3A30247/datastream/PDF/view
!!!URL-scan: https://polish.musicsources.pl/pl/lokalizacje/galeria/rekopisy/6615 @EN{Scan on Polish Music Sources Website} @PL{Skany w portalu Dziedzictwo Muzyki Polskiej w otwartym dostępie}
!!!ONB-nifc:
!!!OMD: Moderato
!!!AIN: 1 forte
!!!key:
**kern	**kern	**dynam
*part1	*part1	*part1
*staff2	*staff1	*
*Iforte	*Iforte	*
*I"Fortepian	*I"Fortepian	*
*>[A,B,B,C,C1,C,C2,D,E,E,F]	*>[A,B,B,C,C1,C,C2,D,E,E,F]	*>[A,B,B,C,C1,C,C2,D,E,E,F]
*>A	*>A	*>A
*clefF4	*clefG2	*
*k[b-e-a-d-g-]	*k[b-e-a-d-g-]	*
*D-:	*D-:	*
*M12/8	*M12/8	*
*all\right	*all\right	*
=1	=1	=1
*	*^	*
*ped	*	*	*
!	!LO:TX:a:t=Introduction	!	!LO:DY:rj
.	8qe-/	.	f
8FL 8D-\	(>8d-L 8A-/	4.ryy	.
8G- 8E-\	8c 8G--/	.	.
8FJ 8D-\	8d-J 8A-/	.	.
4.G- 4.C\	8e-/L	4.An\	.
.	8f/	.	.
.	8e-/J	.	.
4F 4D-\	8d-/L)	4A-X\	.
.	8cc/	.	.
8F-X 8GGn/	8b-/J	8d-\	.
4.E- 4.AA-/	4.a-/	4.c\	.
*Xped	*	*	*
.	.	.	.
=2	=2	=2	=2
*^	*	*	*
.	.	8qcc-X/	.	.
4.G- 4.GG-/	2.ryy	(8b--/L	4.d-\	.
.	.	8a-/	.	.
.	.	8b--/J	.	.
.	.	8qqf-X/	.	.
4.G- 4.C-X\	.	8e-/L	4.B--\	.
.	.	8d-/	.	.
.	.	8e-/J	.	.
8F/L	4AA-\	8a-/L	4d-\	.
!	!	!LO:N:acc=n-	!	!
8Gn 8En/	.	8b-X/	.	.
8G/J	8BB-\	8e-/J)	8d-\	.
4.A-/	4.AA-\	4.a-/	4.c\	.
*v	*v	*	*	*
!!LO:LB:g=original
=3	=3	=3	=3
*clefG2	*8va	*	*
*ped	*	*	*
.	8qqeee-/	.	.
!	!	!	!LO:DY:rj
(8ffL 8dd-\	8ddd-L 8aa-/	4.ryy	pp
8gg- 8ee-\	8ccc 8bb--/	.	.
8ffJ 8dd-\	8ddd-J 8aa-/	.	.
4.gg- 4.cc\	8eee-/L	4aan\	.
.	8fff/	.	.
.	8eee-/J	8ryy	.
4ff 4dd-\	8ddd-/L	4aa-X\	.
.	8cccc/	.	.
8een 8gn/)	8bbb-/J	8ddd-\	.
4.ee-X 4.a-/	4.aaa-/	4.ccc\	.
=4	=4	=4	=4
*^	*	*	*
.	.	8qcccc-X/	.	.
4.gg- 4.g-/	2.ryy	8bbb--/L	4.ddd-\	.
.	.	8aaa-/	.	.
.	.	8bbb--/J	.	.
.	.	8qfff-X/	.	.
4.gg- 4.cc-X\	.	8eee-/L	4.bb--\	.
.	.	8ddd-/	.	.
.	.	8eee-/J	.	.
8ff/L	4a-\	8aaa-/L	4ddd-\	.
!	!	!LO:N:acc=n-	!	!
8ggn 8een/	.	8bbb-X/	.	.
8gg/J	8b-\	8eee-/J	8ddd-\	.
!	!	!LO:TX:a:i:t=loco.	!	!
4.aa- 4.a-\	4.ryy	4.aaa-/	4.cccn\	.
*clefF4	*	*X8va	*	*
*	*	*v	*v	*
*v	*v	*	*
=5	=5	=5
!	!	!LO:DY:rj
8A-L 8G- 8E- 8AA-\	8a-L 8g- 8c/	f
8A- 8G- 8E- 8AA-\	8b- 8g- 8c/	.
8A-J 8G- 8E- 8AA-\	8ccJ 8g- 8c/	.
8A-L 8D-\	8dd-L 8f 8d-/	.
8A- 8D-\	8f 8d-/	.
8GnJ 8D-\	8b-J 8en/	.
8A-L 8E- 8AA-\	8a-L 8e-X 8c/	.
8A- 8E- 8AA-\	8cc 8e- 8c/	.
8A-J 8E- 8AA-\	8b-J 8e- 8c/	.
4.A- 4.E- 4.AA-\	4.a- 4.e- 4.c/	.
!!LO:LB:g=original
=6	=6	=6
*clefG2	*8va	*
8gg-'\L	8bbb--L 8eee- 8ddd-'\	pp
8gg-'\	16bbb--L 16eee- 16ddd-'\	.
.	16bbb--J 16eee- 16ddd-'\	.
8gg-'\J	8bbb--J 8eee- 8ddd-'\	.
8gg-'\L	8bbb--L 8eee- 8ddd-'\	.
8ee-'\	8cccc-X 8eee- 8ddd-'\	.
8gg-'\J	8bbb--J 8eee- 8ddd-'\	.
8aa-'\L	8aaa-L 8eee- 8cccn'\	.
8ee-'\	8ccccn 8eee-'\	.
!	!LO:N:n=1:acc=n-	!
8ggn'\J	8bbb-XJ 8eee- 8ddd-'\	.
!	!LO:TX:a:i:t=loco.	!
4.aa-\	4.aaa- 4.eee- 4.ccc/	.
*clefF4	*X8va	*
=7	=7	=7
*ped	*	*
!	!	!LO:DY:rj
8G-L 8GG-/	8bb--L 8ee- 8dd- 8b--\	f
16G-L 16GG-/	16bb--L 16ee- 16dd- 16b--\	.
16G-J 16GG-/	16bb--J 16ee- 16dd- 16b--\	.
8G-J 8GG-/	8bb--J 8ee- 8dd- 8b--\	.
8G-L 8GG-/	8bb--L 8ee- 8dd- 8b--\	.
8E- 8EE-/	8ccc-X 8ee- 8dd- 8cc-X\	<
8G-J 8GG-/	8bb--J 8ee- 8dd- 8b--\	.
8A-L 8AA-/	8aa-L 8ee- 8ccn 8a-\	.
8Gn 8GGn/	8ggn 8gn\	.
8A-J 8AA-/	8aa-J 8a-\	.
8AA-L 8AAA-/	8cccnL 8gg-X 8ee- 8ccn\	[
8G 8GG/	8ggn 8g\	.
8A-J 8AA-/	8aa-J 8a-\	.
=8	=8	=8
8AA-L 8AAA-/	8ddd-L 8aa- 8ff 8dd-\	.
8Gn 8GGn/	8ggn 8gn\	.
!	!	!LO:DY:rj
8A-J 8AA-/	8aa-J 8a-\	ff
8AA-L 8AAA-/	8dddnL 8aa- 8ff 8ddn\	.
8G 8GG/	8gg 8g\	.
8A-J 8AA-/	8aa-J 8a-\	.
4.AA- 4.AAA-;/	4.eee-: 4.aa-: 4.gg-X: 4.cc:;<\	.
4r	4r	.
8r	8r	.
!!LO:LB:g=original
=9|!	=9|!	=9|!
*M3/4	*M3/4	*
*ped	*	*
!	!LO:TX:a:i:t=Valse.	!LO:DY:rj
4D- 4DD-/	4a- 4f/	p
.	8qcc 8qa-/	.
4d- 4A- 4F\	4b- 4g-/	.
4d- 4A- 4F\	4a- 4f/	.
*Xped	*	*
=10	=10	=10
!LO:TX:b:t=P:problem=kreska pod pięciolinią [simile pedalizacji?]	!	!
4GG- 4GGG-/	4b-- 4g-/	.
4G- 4D-\	8g-L 8B--/	.
.	8a-J 8d-/	.
4B-- 4G- 4D-\	4b-- 4g-/	.
=11	=11	=11
4AA- 4AAA-/	4a- 4f/	.
4c 4A- 4G- 4E-\	4ff 4a-/	.
4c 4A- 4G- 4E-\	4ee- 4g-/	.
=12	=12	=12
4D- 4DD-/	4ee- 4g-/	.
.	8qee-/	.
4d- 4A- 4F\	8dd-L 8f/	.
.	8ccJ 8en/	.
4d- 4A- 4F\	4dd- 4f/	.
=13	=13	=13
4D- 4DD-/	4aa- 4cc-X\	.
4f 4d- 4c-X 4A-\	4bb- 4dd-\	.
4f 4d- 4c- 4A-\	4aa- 4cc-\	.
=14	=14	=14
4GG-/	4aa- 4cc-X\	.
4d- 4B- 4G-\	8gg-L 8b-\	.
.	8dd-J 8a-\	.
4d- 4B- 4G-\	4b- 4g-/	.
!!LO:LB:g=original
=15	=15	=15
4AA- 4AAA-/	4a- 4f/	.
4c 4A- 4G- 4E-\	4ff 4a-/	.
4c 4A- 4G- 4E-\	4ee- 4g-/	.
=16	=16	=16
4D- 4DD-/	4ee- 4g-/	.
4d- 4A- 4F\	8dd-L 8f/	.
.	8a-J 8e-/	.
4A- 4D-\	4f 4d-/	.
=17	=17	=17
4D- 4DD-/	4a- 4f/	.
.	8qcc 8qa-/	.
4d- 4A- 4F\	4b- 4g-/	.
4d- 4A- 4F\	4a- 4f/	.
=18	=18	=18
4GG- 4GGG-/	4b-- 4g-/	.
4G- 4D-/	8g-L 8B--/	.
.	8a-J 8d-/	.
4B-- 4G- 4D-/	4b-- 4g-/	.
=19	=19	=19
4AA- 4AAA-/	4a- 4f/	.
4c 4A- 4G- 4E-\	4ff 4a-/	.
4c 4A- 4G- 4E-\	4ee- 4g-/	.
=20	=20	=20
4D- 4DD-/	4ee- 4g-/	.
.	8qqee-/	.
4d- 4A- 4F\	8dd-L 8f/	.
.	8ccJ 8en/	.
4d- 4A- 4F\	4dd- 4f/	.
!!LO:LB:g=original
=21	=21	=21
!	!LO:TX:t=cres.cen-do:problem=dynamics with extention lines	!LO:HP:t=cres.cen-do
4Dn 4DDn/	4aa- 4cc-X\	<
4f 4dn 4Bn 4A-\	4ggn 4b-\	.
4f 4d 4B 4A-\	4ff 4a-/	.
=22	=22	=22
4E- 4EE-/	4ee- 4cc\	.
*clefG2	*	*
.	8qddd-/	.
4a- 4e- 4c/	8cccL 8ee-\	.
.	8bbnJ 8ddn\	.
4a- 4e- 4c/	4ccc 4ee-\	.
*clefF4	*	*
=23	=23	=23
4E- 4EE-/	4dd- 4b-\	.
*clefG2	*	*
.	8qccc/	.
4gn 4e- 4d- 4B-/	8bb-L 8dd-\	.
.	8aanJ 8cc\	.
4g 4e- 4d- 4B-/	4bb- 4dd-\	[[
*clefF4	*	*
=24	=24	=24
4AA- 4AAA-/	4cc 4a-/	.
*clefG2	*	*
.	8qqbb-/	.
4a- 4e- 4c/	8aa-L 8cc\	.
.	8ggnJ 8b-\	.
4a- 4e- 4c/	4aa- 4cc\	.
=25|!	=25|!	=25|!
*clefF4	*	*
!	!	!LO:DY:rj
4AA- 4AAA-/	4aa- 4cc\	p
.	8qqbb-/	.
4g- 4e- 4c 4A-\	8aa-L 8cc\	.
.	8ggnJ 8bn\	.
4g- 4e- 4c 4A-\	4aa- 4cc\	.
!!LO:PB:g=original
=26	=26	=26
4D- 4DD-/	4ddd- 4ff\	.
.	8qqeee-/	.
4f 4d- 4A-\	8ddd-L 8ff\	.
.	8cccJ 8een\	.
4f 4d- 4A-\	4ddd- 4ff\	.
=27	=27	=27
4AA- 4AAA-/	8bb-L 8gg-\	.
.	(8cc\	.
4g- 4e- 4c 4A-\	8ee-\	.
.	8bb-J 8gg-\)	.
4g- 4e- 4c 4A-\	4aa-\	.
=28	=28	=28
4D- 4DD-/	8bb-L 8ff\	.
.	(8dd-\	.
4f 4d- 4A-\	8ff\	.
.	8bb-J 8gg-\)	.
4f 4d- 4A-\	4aa- 4ff\	.
=29	=29	=29
4AA- 4AAA-/	4aa- 4cc\	f
.	8qqbb-/	.
4g- 4e- 4c 4A-\	8aa-L 8cc\	.
.	8ggnJ 8bn\	.
4g- 4e- 4c 4A-\	4aa- 4cc\	.
=30	=30	=30
4D- 4DD-/	4ddd- 4ff\	.
.	8qqeee-/	.
4f 4d- 4A-\	8ddd-L 8ff\	.
.	8cccJ 8een\	.
4f 4d- 4A-\	4ddd- 4ff\	.
=31	=31	=31
!	!	!LO:DY:rj
4E- 4EE-/	8fffL 8ddd-\	p
.	(8ggn\	.
4gn 4e- 4d- 4B-\	8bb-\	.
.	8fffJ 8ddd-\	.
4g 4e- 4d- 4B-\	4eee-\)	.
!!LO:LB:g=original
=32	=32	=32
4AA-/	8fffL 8ccc\	.
.	(8aa-\	.
4a- 4e- 4c\	8ccc\	.
.	8fffJ 8ddd-\)	.
4a- 4e- 4c\	4eee- 4ccc\	.
=33	=33	=33
4AA- 4AAA-/	4aa- 4cc\	.
.	8qqbb-/	.
4g- 4e- 4c 4A-\	8aa-L 8cc\	.
.	8ggnJ 8bn\	.
4g- 4e- 4c 4A-\	4aa- 4cc\	.
=34	=34	=34
4D- 4DD-/	4ddd- 4ff\	.
.	8qqeee-/	.
4f 4d- 4A-\	8ddd-L 8ff\	.
.	8cccJ 8een\	.
4f 4d- 4A-\	4ddd- 4ff\	.
=35	=35	=35
4AA- 4AAA-/	8bb-L 8gg-\	.
.	(8cc\	.
4g- 4e- 4c 4A-\	8ee-\	.
.	8bb-J 8gg-\)	.
4g- 4e- 4c 4A-\	4aa-\	.
=36	=36	=36
4D- 4DD-/	8bb-L 8ff\	.
.	(8dd-\	.
4f 4d- 4A-\	8ff\	.
.	8bb-J 8gg-\)	.
4f 4d- 4A-\	4aa- 4ff\	.
=37	=37	=37
*ped	*	*
!	!	!LO:DY:rj
4BB-- 4BBB--/	4ddd- 4ff-X\	ff
.	8qqeee-/	.
4a-- 4f-X 4d- 4B-\	8ddd-L 8ff-\	.
.	8cccJ 8ee-\	.
4a-- 4f- 4d- 4B-\	4ddd- 4ff-\	.
*Xped	*	*
!!LO:LB:g=original
=38	=38	=38
4AA- 4AAA-/	4fff 4aa-\	.
.	8qqeee-/	.
4a- 4f 4d- 4A-\	8fffL 8aa-\	.
.	8eeenJ 8ggn\	.
4a- 4f 4d- 4A-\	4fff 4aa-\	.
=39	=39	=39
*	*8va	*
4AA- 4AAA-/	8bbb-L 8ggg-\	.
.	(8ccc\	.
4g- 4e- 4c 4A-\	8eee-\	.
.	8bbb-J 8ggg-\)	.
4g- 4e- 4c 4A-\	4aaa-\	.
=40	=40	=40
4f 4d-\	4dddd- 4fff 4ddd-\	.
*	*X8va	*
!	!LO:TX:a:t=loco	!
4DD-/	4r	.
4r	4r	.
=41!|:	=41!|:	=41!|:
*>B	*>B	*>B
*ped	*	*
(8AA-\L	(8cccL 8aa-\	.
8E-\	8cc\	.
8A-\	8ee-\	.
8c\	8ccc 8aa-\	.
8Bn\	8ddn\	.
8c\J)	8ee-\J)	.
*Xped	*	*
=42	=42	=42
*ped	*	*
(8AA-\L	(8ddd-L 8aa-\	.
8F\	8dd-\	.
8A-\	8ff\	.
8d-\	8ddd- 8aa-\	.
8c\	8een\	.
8d-\J)	8ff\J)	.
*Xped	*	*
*kcancel	*kcancel	*
!!LO:LB:g=original
=43	=43	=43
*k[b-e-a-d-]	*k[b-e-a-d-]	*
8D-L 8AA-\	8fffL 8bb-\	.
.	.	<
8E-\	8gg\	.
8G\	8ee-\	.
8D- 8AA-\	8eee- 8bb-\	.
8E-\	8gg\	.
8G\J	8ee-\J	[
=44	=44	=44
8CL 8AA-\	8fffL 8ccc\	>
8E-\	8aa-\	.
8A-\	8ee-\	.
8C 8AA-\	8eee- 8ccc\	.
8E-\	8aa-\	.
8A-\J	8ee-\J	]
=45	=45	=45
!	!	!LO:DY:rj
8AA-\L	8cccL 8aa-\	p
8E-\	(8cc\	.
8A-\	8ee-\	.
8c\	8ccc 8aa-\	.
8Bn\	8ddn\	.
8c\J	8ee-\J)	.
=46	=46	=46
8AA-\L	8ddd-L 8aa-\	.
8F\	8dd-\	.
8A-\	8ff\	.
8d-\	8ddd- 8aa-\	.
8c\	8een\	.
8d-\J	8ff\J	.
=47	=47	=47
8EnL 8C\	8ddd-L 8bb-\	<
8B-\	8gg\	.
8c\	8een\	.
8E 8C\	8ccc 8bb-\	.
8B-\	8gg\	[
8c\J	8ee\J	.
!!LO:LB:g=original
=48	=48	=48
8A-L 8F\	8ddd-L 8aa-\	>
8c\	8ff\	.
8f\	8cc\	.
8A- 8F\	8ccc 8aa-\	.
8c\	8ff\	.
8f\J	8cc\J	]
=49	=49	=49
8AA-\L	8cccL 8aa-\	.
8E-\	(8cc\	.
8A-\	8ee-\	.
8c\	8ccc 8aa-\	.
8Bn\	8ddn\	.
8c\J	8ee-\J)	.
=50	=50	=50
8AA-\L	8ddd-L 8aa-\	.
8F\	8dd-\	.
8A-\	8ff\	.
8d-\	8ddd- 8aa-\	.
8c\	8een\	.
8d-\J	8ff\J	.
=51	=51	=51
8D-L 8AA-/	8fffL 8bb-\	.
8E-/	8gg\	<
8G/	8ee-\	.
8D- 8AA-/	8eee- 8bb-\	.
8E-/	8gg\	.
8G/J	8ee-\J	[[
=52	=52	=52
8CL 8AA-/	8fffL 8ccc\	>
8E-/	8aa-\	.
8A-/	8ee-\	]
8C 8AA-/	8eee- 8ccc\	.
8E-/	8aa-\	.
8A-/J	8ee-\J	.
!!LO:LB:g=original
=53	=53	=53
8A-L 8F-X\	8ccc-XL 8aa-\	.
8c-X\	8ee--\	.
8e--\	8cc-X\	.
8A- 8F-\	8ccc- 8aa-\	.
8c-\	8ee--\	.
8e--\J	8cc-\J	.
=54	=54	=54
8A-L 8E-\	8cccnL 8aa-\	<
8c\	8ee-\	.
8e-\	8cc\	.
8A- 8E-\	8eee- 8ccc\	[
8c\	8aa-\	.
8e-\J	8ee-\J	.
=55	=55	=55
8A-L 8E-\	8fffL 8bbn\	.
8Bn\	8aa-\	.
8dn\	8ff\	.
!	!	!LO:DY:t=f.
8B-X 8E-\	8ggg 8eee-\	f
8d-X\	8bb-X\	.
8e-\J	8gg\J	.
=56	=56	=56
4e- 4A-\	4aaa- 4ccc 4aa-\	.
4AA-/	4r	.
4r	4r	.
!!LO:PB:g=original
=57:|!|:	=57:|!|:	=57:|!|:
*>C	*>C	*>C
(8EE-\L	8fffL 8aa-\	f
8BB-\	8eeen 8gg\	.
*ped	*	*
8E-\	8eee-X 8gg-X\	.
8G\	8dddn 8ff\	.
8B-\	8ddd-X 8ff-X\	.
8en\J)	8ggnJ 8dd-\	.
*Xped	*	*
=58	=58	=58
!LO:TX:b:t=P:problem=kreska pod pięciolinią [simile pedalizacji?]	!	!
(8AA-\L	8eee-L 8gg\	.
8E-\	8eee-- 8gg-X\	.
8A-\	8ddd- 8ff\	.
8c\	8ccc 8een\	.
8e-\	8ccc-X 8ee-X\	.
8a-\J)	8ffJ 8bn\	.
=59	=59	=59
(8g\L	8ee-L 8b-\	.
8f\	8gg\	.
8e-\	8gg 8ee- 8b-\	.
8dn\	8bb-\	.
8d-X\	8bb- 8gg 8ee-\	.
8B-\J)	8fff\J	.
=60	=60	=60
(8c\L	8eee-L 8ccc 8aa-\	.
8B-\	8aaa-\	.
8A-\	8ccc 8aa- 8ee-\	.
8E-\	8fff\	.
8C\	8eee- 8aa- 8ee-\	.
8AA-\J)	8ccc\J	.
=61	=61	=61
(8EE-\L	8fffL 8aa-\	.
8BB-\	8eeen 8gg\	.
8E-\	8eee-X 8gg-X\	.
8G\	8dddn 8ff\	.
8B-\	8ddd-X 8ff-X\	.
8en\J)	8ggnJ 8dd-\	.
!!LO:LB:g=original
=62	=62	=62
(8AA-\L	8eee-L 8gg\	.
8E-\	8eee-- 8gg-X\	.
8A-\	8ddd- 8ff\	.
8c\	8ccc 8een\	.
8e-\	8ccc-X 8ee-X\	.
8a-\J)	8ffJ 8bn\	.
=63	=63	=63
8g\L	8ee-L 8b-\	.
.	.	<
8g-X\	8een 8dd- 8b-\	.
8f\	8ff 8dd- 8b-\	.
8f-X\	8gg-X 8dd- 8b-\	[
8e-\	8ggn 8dd- 8b-\	.
8gn:J 8d-: 8B-: 8E-:\	8eee-X:J 8bb-: 8gg: 8dd-:\	.
=64	=64	=64
!LO:TX:t=Imo	!	!
*>C1	*>C1	*>C1
4cc: 4a-: 4e-: 4A-:\	4aaa-: 4eee-: 4ccc: 4ee-:\	.
4AA-/	4r	.
4r	4r	.
=65:|!	=65:|!	=65:|!
!LO:TX:t=2do	!	!
*>C2	*>C2	*>C2
*	*^	*
!	!	!	!LO:DY:rj
4c 4A-\	[2.aa-T/	4a-\	p
4AA- 4AAA-^^</	.	4r	.
4r	.	4r	.
=66	=66	=66	=66
*>D	*>D	*>D	*>D
!	!LO:TX:t=cres_cen_do:problem=dynamics with extention lines	!	!LO:HP:t=cres_cen_do
4d- 4A- 4F\	2.aa-/_	4a-\	<
4AA- 4AAA-^^</	.	4r	.
4r	.	4r	.
=67	=67	=67	=67
4e- 4A- 4G-X\	2.aa-/_	4cc\	.
4AA- 4AAA-^^</	.	4r	.
4r	.	4r	.
!!LO:LB:g=original
=68	=68	=68	=68
4f 4d- 4A-\	2.aa-/_	4dd-\	.
4AA- 4AAA-^^</	.	4r	.
4r	.	4r	.
=69	=69	=69	=69
4f 4Bn 4A-\	2.aa-/_	4ddn\	.
4AA- 4AAA-^^</	.	4r	.
4r	.	4r	[[
=70	=70	=70	=70
4g-X 4c 4A-\	2.aa-/]	4ee-\	.
4AA- 4AAA-^^</	.	4r	.
4r	.	4r	.
.	16qqggn/LL	.	.
.	16qqaa-/JJ	.	.
*	*v	*v	*
=71	=71	=71
*ped	*2\right	*
4r;	2bbb-;\	.
(32AA-\LLL	.	.
32E-\	.	.
32G-X\	.	.
32A-\	.	.
32c\	.	.
32e-\	.	.
32g-X>\	.	.
32a->\	.	.
32cc>\	8ryy	.
32ee->\	.	.
32gg-X>\	.	.
32aa->\JJJ)	.	.
4ccc>\	4aaa-/	.
4.ryy	32ggg-XLLL 32bb-\	.
.	32fff 32aa-\	.
.	32eee- 32gg-X\	.
.	32ddd- 32ff\	.
.	32ccc 32ee-\	.
.	32bb-JJJ 32dd-\	.
!!LO:LB:g=original
=-	=-	=-
.	(32aa-LLL 32cc\	.
.	32gg-X 32b-\	.
.	32ff 32a-\	.
.	32ee- 32g\	.
.	32dd- 32f\	.
.	32cc 32e-\	.
16ryy	32b- 32d-\	.
.	32a-JJJ 32c\	.
32B-\LLL	32g/LLL	.
32A-\	32f/	.
32G\	32e-/	.
32F\	32d-/	.
32E-\	32c/)	.
32D-\JJJ	32B-</JJJ	.
*Xped	*	*
.	.	.
8C\L	4A-</	.
8AA-\J	.	.
2B-- 2E- 2D- 2GG-X\	2ryy	.
4C 4AA-\	4A-< 4E-</	.
!	!	!LO:DY:rj:t=f.
8c: 8G-X: 8E-: 8AA-:\	8aa-: 8ee-: 8cc: 8a-:/	f
8r;	8r;	.
!!LO:LB:g=original
=72-	=72-	=72-
*k[b-e-a-d-g-]	*k[b-e-a-d-g-]	*
*ped	*	*
!	!	!LO:DY:rj
4DD-/	4a- 4f/	p
.	8qcc 8qa-/	.
4d- 4A- 4F\	4b- 4g-/	.
4d- 4A- 4F\	4a- 4f/	.
*Xped	*	*
=73	=73	=73
!LO:TX:b:t=P:problem=kreska pod pięciolinią [simile pedalizacji?]	!	!
4GG- 4GGG-/	4b-- 4g-/	.
4G- 4D-\	8g-L 8B--/	.
.	8a-J 8d-/	.
4B-- 4G- 4D-/	4b-- 4g-/	.
=74	=74	=74
4AA- 4AAA-/	4a- 4f/	.
4c 4A- 4G- 4E-\	4ff 4a-/	.
4c 4A- 4G- 4E-\	4ee- 4g-/	.
=75	=75	=75
4D- 4DD-/	4ee- 4g-/	.
.	8qee-/	.
4d- 4A- 4F\	8dd-L 8f/	.
.	8ccJ 8en/	.
4d- 4A- 4F\	4dd- 4f/	.
=76	=76	=76
4D- 4DD-/	4aa- 4cc-X\	.
4f 4d- 4c-X 4A-\	4bb- 4dd-\	.
4f 4d- 4c- 4A-\	4aa- 4cc-\	.
=77	=77	=77
4GG-/	4aa- 4cc-X/	.
4d- 4B- 4G-\	8gg-L 8b-/	.
.	8dd-J 8a-/	.
4d- 4B- 4G-\	4b- 4g-/	.
!!LO:LB:g=original
=78	=78	=78
4AA- 4AAA-/	4a- 4f/	.
4c 4A- 4G- 4E-\	4ff 4a-/	.
4c 4A- 4G- 4E-\	4ee- 4g-/	.
=79	=79	=79
4D- 4DD-/	4ee- 4g-/	.
4d- 4A- 4F\	8dd-L 8f/	.
.	8a-J 8e-/	.
4A- 4D-\	4f 4d-/	.
=80	=80	=80
4DD-/	4a- 4f/	.
.	8qqcc 8qqa-/	.
4d- 4A- 4F\	4b- 4g-/	.
4d- 4A- 4F\	4a- 4f/	.
=81	=81	=81
4GG- 4GGG-/	4b-- 4g-/	.
4G- 4D-/	8g-L 8B--/	.
.	8a-J 8d-/	.
4B-- 4G- 4D-/	4b-- 4g-/	.
=82	=82	=82
4AA- 4AAA-/	4a- 4f/	.
4c 4A- 4G- 4E-\	4ff 4a-/	.
4c 4A- 4G- 4E-\	4ee- 4g-/	.
=83	=83	=83
4D- 4DD-/	4ee- 4g-/	.
.	8qqee-/	.
4d- 4A- 4F\	8dd-L 8f/	.
.	8ccJ 8en/	.
4d- 4A- 4F\	4dd- 4f/	.
!!LO:PB:g=original
=84	=84	=84
4Dn 4DDn/	4aa- 4cc-X\	.
4f 4dn 4Bn 4A-\	4ggn 4b-\	.
4f 4d 4B 4A-\	4ff 4a-/	.
=85	=85	=85
4E- 4EE-/	4ee- 4cc\	.
*clefG2	*	*
.	8qddd-/	.
4a- 4e- 4c/	8cccL 8ee-\	.
.	8bbnJ 8ddn\	.
4a- 4e- 4c/	4ccc 4ee-\	.
*clefF4	*	*
=86	=86	=86
4E- 4EE-/	4dd- 4b-/	.
*clefG2	*	*
.	8qccc/	.
4gn 4e- 4d- 4B-/	8bb-L 8dd-\	.
.	8aanJ 8cc\	.
4g 4e- 4d- 4B-/	4bb- 4dd-\	.
*clefF4	*	*
=87	=87	=87
4AA- 4AAA-/	4cc 4a-/	.
*clefG2	*	*
.	8qbb-/	.
4a- 4e- 4c/	8aa-L 8cc\	.
.	8ggnJ 8b-\	.
4a- 4e- 4c/	4aa- 4cc\	.
*clefF4	*	*
=88|!	=88|!	=88|!
4AA- 4AAA-/	4aa- 4cc\	p
.	8qbb-/	.
4g- 4e- 4c 4A-\	8aa-L 8cc\	.
.	8ggnJ 8bn\	.
4g- 4e- 4c 4A-\	4aa- 4cc\	.
=89	=89	=89
4D- 4DD-/	4ddd- 4ff\	.
.	8qeee-/	.
4f 4d- 4A-\	8ddd-L 8ff\	.
.	8cccJ 8een\	.
4f 4d- 4A-\	4ddd- 4ff\	.
!!LO:LB:g=original
=90	=90	=90
4AA- 4AAA-/	8bb-L 8gg-\	.
.	8cc\	.
4g- 4e- 4c 4A-\	8ee-\	.
.	8bb-J 8gg-\	.
4g- 4e- 4c 4A-\	4aa-\	.
=91	=91	=91
4D- 4DD-/	8bb-L 8ff\	.
.	8dd-\	.
4f 4d- 4A-\	8ff\	.
.	8bb-J 8gg-\	.
4f 4d- 4A-\	4aa- 4ff\	.
=92	=92	=92
4AA- 4AAA-/	4aa- 4cc\	f
.	8qbb-/	.
4g- 4e- 4c 4A-\	8aa-L 8cc\	.
.	8ggnJ 8bn\	.
4g- 4e- 4c 4A-\	4aa- 4cc\	.
=93	=93	=93
4D- 4DD-/	4ddd- 4ff\	.
.	8qqeee-/	.
4f 4d- 4A-\	8ddd-L 8ff\	.
.	8cccJ 8een\	.
4f 4d- 4A-\	4ddd- 4ff\	.
=94	=94	=94
4E- 4EE-/	8fffL 8ddd-\	p
.	8ggn\	.
4g- 4en 4d- 4B-\	8bb-\	.
.	8fffJ 8ddd-\	.
4g- 4e 4d- 4B-\	4eee-\	.
=95	=95	=95
4AA-/	8fffL 8ccc\	.
.	8aa-\	.
4a- 4e- 4c\	8ccc\	.
.	8fffJ 8ddd-\	.
4a- 4e- 4c\	4eee- 4ccc\	.
!!LO:LB:g=original
=96	=96	=96
4AA- 4AAA-/	4aa- 4cc\	.
.	8qbb-/	.
4g- 4e- 4c 4A-\	8aa-L 8cc\	.
.	8ggnJ 8bn\	.
4g- 4e- 4c 4A-\	4aa- 4cc\	.
=97	=97	=97
4D- 4DD-/	4ddd- 4ff\	.
.	8qeee-/	.
4f 4d- 4A-\	8ddd-L 8ff\	.
.	8cccJ 8een\	.
4f 4d- 4A-\	4ddd- 4ff\	.
=98	=98	=98
4AA- 4AAA-/	8bb-L 8gg-\	.
.	8cc\	.
4g- 4e- 4c 4A-\	8ee-\	.
.	8bb-J 8gg-\	.
4g- 4e- 4c 4A-\	4aa-\	.
=99	=99	=99
4D- 4DD-/	8bb-L 8ff\	.
.	8dd-\	.
4f 4d- 4A-\	8ff\	.
.	8bb-J 8gg-\	.
*ped	*	*
4f 4d- 4A-\	4aa- 4ff\	.
=100	=100	=100
!	!	!LO:DY:rj
4BB-- 4BBB--/	4ddd- 4ff-X\	ff
.	8qeee-/	.
4a-- 4f-X 4d- 4B--\	8ddd-L 8ff-\	.
.	8cccJ 8ee-\	.
4a-- 4f- 4d- 4B--\	4ddd- 4ff-\	.
*Xped	*	*
.	.	.
=101	=101	=101
4AA- 4AAA-/	4fff 4aa-\	.
.	8qggg-/	.
4f 4d- 4A-\	8fffL 8aa-\	.
.	8eeenJ 8ggn\	.
4f 4d- 4A-\	4fff 4aa-\	.
!!LO:LB:g=original
=102	=102	=102
*	*8va	*
4AA- 4AAA-/	8bbb-L 8ggg-\	.
.	8ccc\	.
4g- 4e- 4c 4A-\	8eee-\	.
.	8bbb-J 8ggg-\	.
4g- 4e- 4c 4A-\	4aaa-\	.
=103	=103	=103
!	!LO:TX:a:i:t=loco.	!
4f 4d-\	4dddd- 4fff 4ddd-\	.
*	*X8va	*
4D- 4DD-/	4r	.
4r	4r	.
=104|!	=104|!	=104|!
*>E	*>E	*>E
*k[b-e-a-d-g-c-]	*k[b-e-a-d-g-c-]	*
*^	*	*
*ped	*2\right	*	*
!	!	!LO:TX:b:i:t=dolce.	!
!	!	!LO:TX:a:i:t=Sempre legato.	!
4r	2.GG-\	2.b- 2.B-/	.
4G- 4D-/	.	.	.
4G- 4D-/	.	.	.
*Xped	*	*	*
=105	=105	=105	=105
.	.	(>8qdd- 8qd-/	.
!LO:TX:b:t=P:problem=kreska pod pięciolinią [simile pedalizacji?]	!	!	!
4r	2.GG-\	4cc- 4c-/)	.
4G- 4E-/	.	4b- 4B-/	.
4G- 4E-/	.	4cc- 4c-/	.
*v	*v	*	*
=106	=106	=106
4GG-\	(2dd- 2d-/	.
4B- 4G- 4D-/	.	.
4B- 4G- 4D-/	4gg- 4g-/	.
=107	=107	=107
4B- 4G- 4D-\	2.bb- 2.b-\)	.
4B- 4G- 4D-\	.	.
4B- 4G- 4D-\	.	.
!!LO:LB:g=original
=108	=108	=108
4GG-/	[2.bb- [>2.b-\	.
4B- 4G- 4D-\	.	.
4B- 4G- 4D-\	.	.
=109	=109	=109
4B- 4G- 4Dn\	4bb-] 4b-\]	<
.	8qddd- 8qdd-/	.
4B- 4G- 4D\	4ccc- 4cc-\	.
4B- 4G- 4D\	4bb- 4b-\	[[
=110	=110	=110
*^	*	*
4r	[2.C-\	2.bb- 2.b-\	.
4c- 4A- 4E-/	.	.	.
4c- 4A- 4E-/	.	.	.
=111	=111	=111	=111
4c- 4A- 4E-/	2C-\]	4aa- 4a-\	.
4c- 4A- 4E-/	.	4aa- 4a-\	.
4d-: 4Gn: 4E-: 4BB-:\	4ryy	4bb- 4b-\	.
*v	*v	*	*
=112	=112	=112
4AA-/	2ccc- 2cc-\	>
4c- 4A- 4E-\	.	.
4c- 4A- 4E-\	4bb- 4b-\	]]
=113	=113	=113
4C-/	2ccc- 2cc-\	.
4c- 4A- 4E-/	.	.
4c- 4A- 4E-/	4dddn 4ddn\	.
!!LO:LB:g=original
=114	=114	=114
4AA-/	[2.fff [>2.ff\	.
4c- 4A- 4E-/	.	.
4c- 4A- 4E-/	.	.
=115	=115	=115
4C-\	4fff] 4ff\]	<
4c- 4A- 4E-/	4eee- 4ee-\	.
4c- 4A- 4E-/	4dddn 4ddn\	[
=116	=116	=116
4AA-/	4fff 4aa- 4ff\	.
4c- 4A- 4E-/	4.eee- 4.gg- 4.ee-\	.
4c- 4A- 4E-/	.	.
.	8ddd- 8ff 8dd-\	.
=117	=117	=117
4C-/	(<4ddd- 4ff 4dd-\	.
4c- 4A- 4E-/	4.ccc- 4.ee- 4.cc-\	.
4c- 4A- 4E-/	.	.
.	8bb- 8dd- 8b-\)	.
=118	=118	=118
4DD-/	2aa- 2cc- 2a-\	.
4c- 4A- 4F 4D-\	.	.
4c- 4A- 4F 4D-\	([4ee- [>4cc-/	.
=119	=119	=119
*^	*	*
4r	2.D-\	4ee-] 4cc-\]	.
4c- 4A- 4F/	.	4dd- 4b-\	.
4c- 4A- 4F/	.	4cc- 4a-\)	.
!!LO:PB:g=original
=120	=120	=120	=120
4r	2GG-\	2.b- 2.B-/	.
4G- 4D- 4BB-/	.	.	.
4G- 4D- 4BB-/	4ryy	.	.
=121	=121	=121	=121
.	.	8qdd- 8qd-/	.
4r	2.AA-\	4cc- 4c-/	.
4F 4D- 4C-/	.	4b- 4B-/	.
4F 4D- 4C-/	.	4cc- 4c-/	.
=122	=122	=122	=122
!	!	!LO:TX:t=cres._cen._do.:problem=dynamics with extention lines	!LO:HP:t=cres._cen._do.
4r	2BB-\	2.dd- 2.d-/	<
4G- 4D-/	.	.	.
4G- 4D-/	4ryy	.	.
=123	=123	=123	=123
4r	2.BB-\	2ddn 2dn/	.
4A- 4F/	.	.	.
4A- 4F/	.	4ryy	.
=124	=124	=124	=124
4r	2C-\	2ee- 2e-/	.
4G- 4E-/	.	.	.
4Gn 4E- 4D- 4BB-/	4ryy	4ggn 4gn/	.
=125	=125	=125	=125
4r	2AA-\	2aa- 2a-\	.
4A- 4E- 4C-/	.	.	.
4B-: 4En: 4D-: 4GGn:/	4ryy	4bb- 4b-\	.
*v	*v	*	*
!!LO:LB:g=original
=126	=126	=126
4AA-/	2.ddd- 2.dd-^^\	.
4d- 4Gn 4En\	.	.
4d- 4G 4E\	.	[[
=127	=127	=127
4AA-/	4ccc- 4cc-\	.
4c- 4A- 4E-/	4ccc- 4cc-\	.
4c- 4A- 4E-/	4eee-- 4ee--\	.
=128	=128	=128
*ped	*	*
4C- 4CC-/	4.fff 4.ddd- 4.ff\	f
4c- 4A- 4E-\	.	.
.	8eee- 8ccc- 8ee-\	.
4c- 4A- 4E-\	4eee- 4ccc- 4ee-\	.
=129	=129	=129
4AA- 4AAA-/	4eee- 4ccc- 4ee-\	.
.	.	<
4c- 4A- 4E-/	4bbb- 4ddd- 4bb-\	.
4c- 4A- 4E-/	4aaa- 4ccc- 4aa-\	.
*Xped	*	*
=130	=130	=130
*ped	*	*
4DD-/	4.eee- 4.ccc- 4.ee-\	[
4B- 4G- 4D-/	.	.
.	8ddd- 8bb- 8dd-\	.
4B- 4G- 4D-/	4ddd- 4bb- 4dd-\	.
=131	=131	=131
4DD-/	4ddd- 4bb- 4dd-\	.
4B- 4G- 4D-/	4aaa- 4ccc- 4aa-\	.
4B- 4G- 4D-/	4ggg- 4bb- 4gg-\	.
*Xped	*	*
!!LO:LB:g=original
=132	=132	=132
*ped	*	*
4DD-/	4fff 4ccc- 4aa- 4ff\	ff
*	*8va	*
4c- 4A- 4F 4D-\	4eeee- 4eee-\	.
4c- 4A- 4F 4D-\	4dddd- 4ddd-\	.
=133	=133	=133
4D- 4DD-/	8dddd-L 8ddd-\	.
.	8cccc-J 8ccc-\	.
4f 4d- 4c- 4A-\	4bbb- 4ddd- 4bb-\	.
4f 4d- 4c- 4A-\	4aaa- 4ccc- 4aa-\	.
*Xped	*	*
=134	=134	=134
*ped	*	*
4G- 4GG-/	4ggg- 4ddd- 4bb- 4gg-\	.
4D- 4DD-/	8ggg-L 8ddd- 8bb- 8gg-\	.
.	8ggg-J 8ddd- 8bb- 8gg-\	.
4BB- 4BBB-/	4ggg- 4ddd- 4bb- 4gg-\	.
=135	=135	=135
2GG- 2GGG-/	2ggg- 2ddd- 2bb- 2gg-/	.
*Xped	*X8va	*
!	!LO:TX:a:t=loco.	!
4r	4r	.
=136:|!	=136:|!	=136:|!
*>F	*>F	*>F
*k[b-e-a-d-g-]	*k[b-e-a-d-g-]	*
!	!	!LO:DY:rj
4DD-/	4a- 4f/	p
.	8qcc 8qa-/	.
4d- 4A- 4F\	4b- 4g-/	.
4d- 4A- 4F\	4a- 4f/	.
=137	=137	=137
4GG- 4GGG-/	4b-- 4g-/	.
4G- 4D-/	8g-L 8B--/	.
.	8a-J 8d-/	.
4B-- 4G- 4D-/	4b-- 4g-/	.
!!LO:LB:g=original
=138	=138	=138
4AA- 4AAA-/	4a- 4f/	.
4c 4A- 4G- 4E-\	4ff 4a-/	.
4c 4A- 4G- 4E-\	4ee- 4g-/	.
=139	=139	=139
4D- 4DD-/	4ee- 4g-/	.
.	8qee-/	.
4d- 4A- 4F\	8dd-L 8f/	.
.	8ccJ 8en/	.
4d- 4A- 4F\	4dd- 4f/	.
=140	=140	=140
4D- 4DD-/	4aa- 4cc-X\	.
4f 4d- 4c-X 4A-\	4bb- 4dd-\	.
4f 4d- 4c- 4A-\	4aa- 4cc-\	.
=141	=141	=141
4GG-/	4aa- 4cc-X\	.
4d- 4B- 4G-\	8gg-L 8b-\	.
.	8dd-J 8a-\	.
!	!LO:N:xstem	!
4d- 4B- 4G-\	4a-/	.
=142	=142	=142
4AA- 4AAA-/	4a- 4f/	.
4c 4A- 4G- 4E-\	4ff 4a-/	.
4c 4A- 4G- 4E-\	4ee- 4g-/	.
=143	=143	=143
4D- 4DD-/	4ee- 4g-/	.
4d- 4A- 4F\	8dd-L 8f/	.
.	8a-J 8e-/	.
4A- 4D-\	4f 4d-/	.
!!LO:LB:g=original
=144	=144	=144
4DD-/	4a- 4f/	.
.	8qcc 8qa-/	.
4d- 4A- 4F\	4b- 4g-/	.
4d- 4A- 4F\	4a- 4f/	.
=145	=145	=145
4GG- 4GGG-/	4b-- 4g-/	.
4G- 4D-/	8g-L 8B--/	.
.	8a-J 8d-/	.
4B-- 4G- 4D-/	4b-- 4g-/	.
=146	=146	=146
4AA- 4AAA-/	4a- 4f/	.
4c 4A- 4G- 4E-\	4ff 4a-/	.
4c 4A- 4G- 4E-\	4ee- 4g-/	.
=147	=147	=147
4D- 4DD-/	4ee- 4g-/	.
.	8qqee-/	.
4d- 4A- 4F\	8dd-L 8f/	.
.	8ccJ 8en/	.
4d- 4A- 4F\	4dd- 4f/	<
=148	=148	=148
4Dn 4DDn/	4aa- 4cc-X\	.
4f 4dn 4Bn 4A-\	4ggn 4b-\	[
4f 4d 4B 4A-\	4ff 4a-\	.
=149	=149	=149
4E- 4EE-/	4ee- 4cc\	.
*clefG2	*	*
.	8qddd-/	.
4a- 4e- 4c/	8cccL 8ee-\	.
.	8bbnJ 8ddn\	.
4a- 4e- 4c/	4ccc 4ee-\	.
*clefF4	*	*
!!LO:LB:g=original
=150	=150	=150
4E- 4EE-/	4dd- 4b-/	.
*clefG2	*	*
.	8qqccc/	.
4gn 4e- 4d- 4B-/	8bb-L 8dd-\	.
.	8aanJ 8cc\	.
4g 4e- 4d- 4B-/	4bb- 4dd-\	.
*clefF4	*	*
=151	=151	=151
4AA-/	4cc 4a-/	.
*clefG2	*	*
.	8qqbb-/	.
4a- 4e- 4c/	8aa-L 8cc\	.
.	8ggnJ 8b-\	.
4a- 4e- 4c/	4aa- 4cc\	.
*clefF4	*	*
=152|!	=152|!	=152|!
*ped	*	*
!	!	!LO:DY:rj
4AA- 4AAA-/	4aa- 4cc\	p
.	8qbb-/	.
4g- 4e- 4c 4A-\	8aa-L 8cc\	.
.	8ggnJ 8bn\	.
4g- 4e- 4c 4A-\	4aa- 4cc\	.
*Xped	*	*
=153	=153	=153
!LO:TX:b:t=P:problem=kreska pod pięciolinią [simile pedalizacji?]	!	!
4D- 4DD-/	4ddd- 4ff\	.
.	8qqeee-/	.
4f 4d- 4A-\	8ddd-L 8ff\	.
.	8cccJ 8een\	.
4f 4d- 4A-\	4ddd- 4ff\	.
=154	=154	=154
4AA- 4AAA-/	8bb-L 8gg-\	.
.	8cc\	.
4g- 4e- 4c 4A-\	8ee-\	.
.	8bb-J 8gg-\	.
4g- 4e- 4c 4A-\	4aa-\	.
=155	=155	=155
4D- 4DD-/	8bb-L 8ff\	.
.	8dd-\	.
4f 4d- 4A-\	8ff\	.
.	8bb-J 8gg-\	.
4f 4d- 4A-\	4aa- 4ff\	.
!!LO:PB:g=original
=156	=156	=156
4AA- 4AAA-/	4aa- 4cc\	f
.	8qqbb-/	.
4g- 4e- 4c 4A-\	8aa-L 8cc\	.
.	8ggnJ 8bn\	.
4g- 4e- 4c 4A-\	4aa- 4cc\	.
=157	=157	=157
4D- 4DD-/	4ddd- 4ff\	.
.	8qqeee-/	.
4f 4d- 4A-\	8ddd-L 8ff\	.
.	8cccJ 8een\	.
4f 4d- 4A-\	4ddd- 4ff\	.
=158	=158	=158
4E- 4EE-/	8fffL 8ddd-\	p
.	8ggn\	.
4gn 4e- 4d- 4B-\	8bb-\	.
.	8fffJ 8ddd-\	.
4g 4e- 4d- 4B-\	4eee-\	.
=159	=159	=159
4AA-/	8fffL 8ccc\	.
.	8aa-\	.
4a- 4e- 4c\	8ccc\	.
.	8fffJ 8ddd-\	.
4a- 4e- 4c\	4fff 4eee- 4ccc\	.
=160	=160	=160
4AA- 4AAA-/	4aa- 4cc\	.
.	8qqbb-/	.
4g- 4e- 4c 4A-\	8aa-L 8cc\	.
.	8ggnJ 8bn\	.
4g- 4e- 4c 4A-\	4aa- 4cc\	.
=161	=161	=161
4D- 4DD-/	4ddd- 4ff\	.
.	8qeee-/	.
4f 4d- 4A-\	8ddd-L 8ff\	.
.	8cccJ 8een\	.
4f 4d- 4A-\	4ddd- 4ff\	.
!!LO:LB:g=original
=162	=162	=162
4AA- 4AAA-/	8bb-L 8gg-\	.
.	8cc\	.
4g- 4e- 4c 4A-\	8ee-\	.
.	8bb-J 8gg-\	.
4g- 4e- 4c 4A-\	4aa-\	.
=163	=163	=163
4D- 4DD-/	8bb-L 8ff\	.
.	8dd-\	.
4f 4d- 4A-\	8ff\	.
.	8bb-J 8gg-\	.
4f 4d- 4A-\	4aa- 4ff\	.
=164	=164	=164
4BB-- 4BBB--/	4ddd- 4ff-X\	.
.	8qqeee-/	.
4a-- 4f-X 4d- 4B--\	8ddd-L 8ff-\	.
.	8cccJ 8ee-\	.
4a-- 4f- 4d- 4B--\	4ddd- 4ff-\	.
=165	=165	=165
4AA- 4AAA-/	4fff 4aa-\	.
.	8qggg-/	.
4f 4d- 4A-\	8fffL 8aa-\	.
.	8eeenJ 8ggn\	.
4f 4d- 4A-\	4fff 4aa-\	.
=166	=166	=166
*	*8va	*
4AA- 4AAA-/	8bbb-L 8ggg-\	.
.	8ccc\	.
4g- 4e- 4c 4A-\	8eee-\	.
.	8bbb-J 8ggg-\	.
4g- 4e- 4c 4A-\	4aaa-\	.
*	*X8va	*
=167	=167	=167
!	!LO:TX:a:i:t=loco.	!
2.r	2.r	.
!!LO:LB:g=original
=168	=168	=168
*ped	*	*
4D- 4DD-/	4.fff 4.ff\	ff
4f 4d- 4A-\	.	.
.	8eee-L 8ee-\	.
4f-X 4d- 4B--\	8ddd- 8dd-\	.
.	8bb--J 8b--\	.
*Xped	*	*
.	.	.
=169	=169	=169
!LO:TX:b:t=P:problem=kreska pod pięciolinią [simile pedalizacji?]	!	!
4D-\	4aa- 4a-\	.
4d- 4A- 4F\	8ddd-L 8dd-\	.
.	8fffJ 8ff\	.
4B-: 4En: 4D-: 4GGn^^:\	4bbb- 4bb-^^<\	.
=170	=170	=170
4AA- 4AAA-/	8aaa-L 8aa-\	.
.	8ggg-J 8gg-\	.
4g- 4e- 4c 4A-\	4bb- 4b-\	.
*	*8va	*
4g- 4e- 4c 4A-\	4cccc 4ccc\	.
=171	=171	=171
4D- 4DD-/	4dddd- 4ddd-\	.
4f 4d- 4A-\	8fffL 8ff\	.
.	8bbb- 8bb-\	.
4f 4d- 4A-\	8aaa- 8aa-\	.
.	8fffJ 8ff\	.
=172	=172	=172
4D- 4DD-/	8fffL 8ff/	.
.	8eee-J 8ee-/	.
4f 4d- 4A-\	4ddd- 4dd-/	.
4f-X 4d- 4B--\	4bb-- 4b--/	.
!!LO:LB:g=original
=173	=173	=173
4D-\	4aa- 4a-/	.
4d- 4A- 4F\	8ddd-L 8dd-/	.
.	8fffJ 8ff/	.
4B-: 4En: 4D-: 4GGn^^:\	4bbb- 4bb-^^\	.
=174	=174	=174
!	!	!LO:HP:t=cres.
4r	4ccc 4cc/	<
4r	8eee-L 8ee-/	.
.	8ggg-J 8gg-/	.
4c: 4F#X: 4E-: 4AAn^^:\	4cccc 4ccc^^\	.
=175	=175	=175
4r	4ddd- 4dd-\	.
4r	8fffL 8ff\	.
.	8bbb-J 8bb-\	.
4d-: 4F: 4BB-^^:\	4dddd- 4ddd-^^\	.
=176	=176	=176
4r	4dddn 4ddn\	.
4r	8fffL 8ff\	.
.	8aaa-J 8aa-\	.
4dn: 4A-: 4F: 4BBn^^:\	4ddddny 4ddd^^\	.
=177	=177	=177
4r	4eee- 4ee-\	.
4r	8ggg-L 8gg-\	.
.	8aaa-J 8aa-\	.
4e-: 4A-: 4G-: 4C^^:\	4eeee- 4eee-^^\	.
=178	=178	=178
4r	4eee- 4ee-/	p
4r	8ggg-L 8gg-\	.
.	8bbb--J 8bb--\	.
*clefG2	*	*
4b-- 4g- 4e- 4c-X/	4eeee- 4eee-^^\	.
*clefF4	*	*
!!LO:LB:g=original
=179	=179	=179
4r	4eee- 4ee-\	.
4r	8ggg-L 8gg-\	.
.	8bbb-J 8bb-\	.
*clefG2	*	*
4b- 4g- 4e- 4B-/	4eeee- 4eee-^^\	.
=180	=180	=180
4r	4eee- 4ee-/	.
4r	8ggg-L 8gg-\	.
.	8cccc-XJ 8ccc-X\	.
4cc-X 4g- 4e- 4B--/	4eeee- 4eee-^^\	.
=181	=181	=181
4r	4eee- 4ee-/	.
4r	8ggg-L 8gg-\	.
.	8aaa-J 8aa-\	.
4cc: 4g-: 4e-: 4A-:/	4eeee- 4eee-^^\	.
=182	=182	=182
!	!	!LO:DY:rj
8ffL 8dd- 8a- 8f/	8ffffL 8dddd- 8aaa- 8fff\	f
8ee-J 8e-/	8eeee-J 8eee-\	.
4dd- 4d-/	4dddd- 4ddd-\	.
4b-- 4B--/	4bbb-- 4bb--\	.
*clefF4	*	*
=183	=183	=183
4a- 4f 4d- 4A-\	4aaa- 4fff 4ddd- 4aa-\	.
8fL 8F\	8fffL 8ff/	.
8d-J 8D-\	8ddd-J 8dd-/	.
!	!LO:TX:a:i:t=loco.	!
4A- 4AA-/	4aa- 4a-/	.
*	*X8va	*
!!LO:LB:g=original
=184	=184	=184
8fL 8d- 8A- 8F\	8fffL 8ddd- 8aa- 8ff\	.
8e-J 8E-\	8eee-J 8ee-\	.
4d- 4D-\	4ddd- 4dd-\	.
4B-- 4BB--\	4bb-- 4b--\	.
=185	=185	=185
4A- 4F 4D- 4AA-/	4aa- 4ff 4dd- 4a-\	.
8FL 8FF/	8ffL 8f/	.
8D-J 8DD-/	8dd-J 8d-/	.
4AA- 4AAA-/	4a- 4A-/	.
=186	=186	=186
!	!	!LO:DY:rj
4GG- 4GGG-/	4b-- 4g- 4d- 4B--/	fff
8B--L 8BB--\	8bb--L 8b--\	.
8A- 8AA-\	8aa- 8a-\	.
8G- 8GG-\	8gg- 8g-\	.
8B--J 8BB--\	8bb--J 8b--\	.
=187	=187	=187
*	*^	*
4d- 4D-\	2ryy	4ddd- 4dd-\	.
4r	.	4r	.
*	*8va	*	*
4GG- 4GGG-/	8dddd-/L	4bbb- 4ggg- 4ddd-\	.
.	8eeee-/J	.	.
*	*v	*v	*
=188	=188	=188
*8ba	*	*
!LO:TX:b:t=8	!	!
4DDD-/	4ffff 4dddd- 4aaa- 4fff\	.
*X8ba	*X8va	*
!	!LO:TX:a:i:t=loco.	!
4r	4r	.
4d-: 4A-: 4D-:\	4ff: 4dd-: 4a-: 4f:/	.
=189	=189	=189
*8ba	*	*
!LO:TX:b:t=8	!	!
2.DDD-;</	2.d- 2.D-<;/	.
*X8ba	*	*
!	!LO:TX:b:t=Fine.	!
==	==	==
*-	*-	*-
!!!system-decoration: {(s1,s2)}
!!!RDF**kern: > = above
!!!RDF**kern: < = below
!!!RDF**dynam: pp = "pp."
!!!RDF**dynam: ff = "ff."
!!!RDF**dynam: p = "p."
!!!ENC: Andrzej Kubiczek
!!!END: 2021-06-08
!!!ENC: Tomasz Grochalski
!!!END: 2021-05-25
!!!YEC: Copyright 2022 Narodowy Instytut Fryderyka Chopina (https://polishscores.org)
!!!YEM: Licence CC BY 4.0 (https://creativecommons.org/licenses/by/4.0)
